images/winter-sport_theme_light.svg

<svg width="50" height="50" viewBox="0 0 50 50" fill="none" xmlns="http://www.w3.org/2000/svg">
<path fill-rule="evenodd" clip-rule="evenodd" d="M45.4073 37.1959H14.9471V9.67216H45.4073V37.1959ZM29.5962 13.5723C29.6599 13.4512 29.7831 13.2968 29.8699 13.2293C29.9568 13.1617 30.1694 13.105 30.3425 13.1033C30.574 13.1008 30.7254 13.1821 30.9149 13.4102C31.1661 13.7126 31.1726 13.7573 31.1726 15.1746C31.1726 15.9744 31.1959 16.6287 31.2245 16.6287C31.253 16.6287 31.7832 16.2431 32.4028 15.7717C33.3287 15.0673 33.5928 14.9148 33.8867 14.9148C34.1541 14.9148 34.2959 14.9815 34.4503 15.1804C34.5638 15.3265 34.6566 15.5286 34.6566 15.6294C34.6566 15.7302 34.6079 15.9169 34.5483 16.0443C34.4888 16.1716 33.7049 16.8382 32.8063 17.5255L31.1726 18.7752V21.7204L31.6239 21.963C31.8722 22.0964 32.2018 22.3513 32.3564 22.5297L32.6374 22.8538L35.4032 21.9217L35.8745 20.5103C36.1339 19.734 36.46 18.7992 36.5993 18.433C36.7792 17.9604 36.9254 17.7337 37.1032 17.6516C37.241 17.5881 37.4351 17.5361 37.5346 17.5361C37.6342 17.5361 37.8337 17.6302 37.9779 17.7451C38.1642 17.8935 38.2402 18.048 38.2402 18.2785C38.2402 18.4571 38.0404 19.2065 37.7961 19.9441C37.5391 20.7202 37.4028 21.2673 37.4726 21.2432C37.5389 21.2202 38.2128 21.0024 38.9701 20.7592C40.2563 20.346 40.3645 20.3269 40.6126 20.4676C40.7586 20.5506 40.9381 20.7449 41.0115 20.8995C41.119 21.1261 41.1212 21.2389 41.0224 21.4804C40.9549 21.6452 40.7829 21.8386 40.6401 21.9101C40.4972 21.9816 39.8317 22.2143 39.161 22.4272C38.4902 22.64 37.9419 22.8402 37.9422 22.8721C37.9425 22.9039 38.4617 23.2929 39.0959 23.7365C39.7301 24.1801 40.2898 24.6195 40.3396 24.7128C40.3894 24.8063 40.4301 24.9953 40.4301 25.133C40.4301 25.2709 40.4023 25.457 40.3683 25.5467C40.3343 25.6365 40.1753 25.7787 40.0149 25.8627C39.8429 25.9527 39.6336 25.987 39.5044 25.9461C39.3839 25.908 38.5463 25.3537 37.6429 24.7143C36.7396 24.0749 35.9307 23.5558 35.8455 23.5608C35.7603 23.5657 35.1281 23.7551 34.4406 23.9817L33.1907 24.3935L33.0786 24.9588C33.0169 25.2697 32.8751 25.6737 32.7635 25.8567L32.5606 26.1893L34.3082 28.6259L36.4101 28.6261C38.3556 28.6262 38.5307 28.6412 38.7631 28.8263C38.9012 28.9363 39.0417 29.1373 39.0753 29.273C39.1089 29.4086 39.0937 29.6334 39.0415 29.7726C38.9893 29.9117 38.8436 30.0813 38.7178 30.1495C38.5601 30.235 38.033 30.2663 37.0208 30.25C36.2132 30.2371 35.5525 30.2525 35.5525 30.2842C35.5525 30.3159 35.9333 30.872 36.3986 31.5201C37.0551 32.4342 37.2448 32.773 37.2448 33.0316C37.2448 33.2289 37.1646 33.4459 37.0482 33.5639C36.9401 33.6734 36.7427 33.7906 36.6096 33.8245C36.4764 33.8583 36.2705 33.8335 36.1521 33.7693C36.0336 33.705 35.5399 33.1073 35.0549 32.4409L34.1731 31.2292L33.8748 32.2214C33.7108 32.7671 33.5203 33.4094 33.4518 33.6489C33.3832 33.8883 33.2169 34.1718 33.0825 34.279C32.9481 34.3862 32.7077 34.4738 32.5483 34.4738C32.3734 34.4738 32.1617 34.3757 32.0143 34.2263C31.8799 34.0902 31.7699 33.8829 31.7699 33.7656C31.7699 33.6484 32.0405 32.6524 32.3713 31.5523L32.9728 29.5523L31.3221 27.2584L29.3321 27.2804L28.858 27.9282C28.5973 28.2844 28.2287 28.8027 28.0389 29.0799L27.6939 29.584L28.2878 31.4996C28.6145 32.5532 28.882 33.5484 28.8824 33.7112C28.8828 33.877 28.7881 34.1096 28.6667 34.2405C28.5235 34.3948 28.3367 34.4738 28.1147 34.4738C27.8986 34.4738 27.7003 34.3929 27.5576 34.2469C27.4175 34.1034 27.1923 33.5297 26.9443 32.6842C26.7287 31.9495 26.5217 31.3484 26.4841 31.3484C26.4467 31.3484 26.0311 31.8877 25.5606 32.5468C25.0901 33.206 24.6337 33.7731 24.5463 33.8071C24.4589 33.841 24.2771 33.8689 24.1422 33.8689C24.0073 33.8689 23.787 33.7575 23.6526 33.6214C23.5033 33.4702 23.4082 33.2579 23.4082 33.0757C23.4082 32.8637 23.6418 32.4474 24.2167 31.6345C24.6615 31.0058 25.0436 30.4436 25.066 30.3852C25.0939 30.3126 24.6362 30.2926 23.6181 30.3218L22.1293 30.3647L21.8729 30.105C21.6988 29.9286 21.6165 29.7362 21.6165 29.5054C21.6165 29.2704 21.6957 29.09 21.8733 28.921C22.1247 28.6819 22.1754 28.6755 24.2586 28.6262L26.3872 28.5758L28.0857 26.2097L27.8876 25.8804C27.7787 25.6994 27.6387 25.2905 27.5766 24.9719L27.4637 24.3926L26.8048 24.1935C26.4422 24.0839 25.8301 23.8855 25.4444 23.7524L24.743 23.5105L23.0056 24.7573C21.8538 25.5837 21.1803 26.0041 21.0078 26.0044C20.8646 26.0047 20.6294 25.9109 20.4852 25.7959C20.2827 25.6347 20.2229 25.4982 20.2229 25.1978C20.2229 24.8609 20.2798 24.7624 20.6459 24.4653C20.8787 24.2765 21.4392 23.8567 21.8917 23.5324C22.3441 23.2082 22.6801 22.91 22.6383 22.8697C22.5964 22.8295 21.968 22.6061 21.2418 22.3732C20.2504 22.0554 19.8722 21.8865 19.7237 21.6954C19.615 21.5554 19.5261 21.3436 19.5261 21.2249C19.5261 21.106 19.5977 20.9051 19.6854 20.7783C19.773 20.6516 19.9534 20.5061 20.0862 20.455C20.2728 20.3831 20.6457 20.4654 21.7316 20.8178C22.5039 21.0684 23.1582 21.2508 23.1857 21.223C23.2131 21.1951 23.0184 20.5325 22.753 19.7505C22.2988 18.4128 22.2791 18.3126 22.4198 18.0583C22.5021 17.9097 22.6942 17.7273 22.8469 17.653C23.0706 17.5442 23.182 17.5419 23.4204 17.642C23.5831 17.7103 23.7754 17.8845 23.8475 18.0292C23.9198 18.1739 24.2599 19.1147 24.6035 20.1199L25.2281 21.9476L28.0071 22.8636L28.3002 22.5256C28.4614 22.3396 28.7928 22.0896 29.0368 21.97L29.4804 21.7526V18.7684L27.7971 17.4924C26.8714 16.7907 26.0875 16.1468 26.0551 16.0615C26.0228 15.9763 25.9964 15.8029 25.9964 15.6763C25.9964 15.5496 26.0892 15.3265 26.2027 15.1804C26.3571 14.9815 26.4989 14.9148 26.7663 14.9148C27.0602 14.9148 27.3243 15.0673 28.2502 15.7717C28.8698 16.2431 29.4001 16.6287 29.4285 16.6287C29.4571 16.6287 29.4804 15.9905 29.4804 15.2106C29.4804 14.3259 29.524 13.7097 29.5962 13.5723Z" fill="#0086FF"/>
<path fill-rule="evenodd" clip-rule="evenodd" d="M9.39374 0.615034C9.69228 0.442027 10.1792 0.234339 10.4759 0.153582C10.7724 0.0728258 11.3318 0.00376439 11.7187 0.000134881C12.1057 -0.00349462 12.6656 0.066575 12.963 0.156002C13.2604 0.245328 13.7073 0.422871 13.9561 0.550509C14.205 0.678046 14.637 0.990486 14.9161 1.24475C15.1953 1.49892 15.5675 1.93396 15.7434 2.21141C15.9192 2.48897 16.1501 2.99942 16.2566 3.34593C16.3805 3.74921 16.4501 4.26601 16.4499 4.78241C16.4498 5.30748 16.3792 5.81964 16.2478 6.24994C16.1368 6.6135 15.8673 7.16922 15.6489 7.48498L15.2519 8.05905H46.5113L47 8.55397V38.3878L46.3875 38.9098H14.9471V49.5051L14.4584 50H9.00921L8.52652 49.4797L8.47536 8.37028L7.98859 7.71888C7.72082 7.36067 7.40328 6.80294 7.28283 6.47951C7.16248 6.15608 7.04024 5.55116 7.01138 5.13528C6.98211 4.71335 7.01118 4.12426 7.07717 3.80255C7.14227 3.48537 7.3331 2.94719 7.50113 2.60652C7.66916 2.26585 8.04165 1.74925 8.32883 1.45839C8.61591 1.16753 9.09521 0.78804 9.39374 0.615034ZM13.8855 2.49371C13.6755 2.28854 13.2804 2.02086 13.0076 1.89887C12.7202 1.77043 12.2386 1.66104 11.8628 1.63896C11.4041 1.61204 11.0632 1.65549 10.6985 1.78746C10.4149 1.8902 9.98025 2.14215 9.73289 2.34752C9.43665 2.59332 9.17176 2.94971 8.95735 3.391C8.68141 3.95861 8.63164 4.17134 8.63164 4.78241C8.63164 5.39267 8.68151 5.60641 8.95555 6.17029C9.13374 6.53687 9.42371 6.9586 9.5998 7.10751C9.77599 7.25642 9.97458 7.4747 10.0411 7.59266C10.1347 7.75881 10.1627 12.371 10.1655 28.0969L10.169 48.3869H13.3544V7.63228L13.8934 7.04259C14.2396 6.66381 14.5102 6.2443 14.6498 5.86975C14.8216 5.4086 14.858 5.13871 14.8231 4.58077C14.7924 4.08746 14.7021 3.7233 14.5233 3.37094C14.3826 3.09368 14.0956 2.69897 13.8855 2.49371ZM45.4073 37.1959V9.67216H14.9471V37.1959H45.4073Z" fill="#0086FF"/>
<path d="M30.8773 23.4357C31.0378 23.5198 31.2372 23.7218 31.3202 23.8844C31.4033 24.0471 31.4713 24.3164 31.4713 24.4829C31.4713 24.6494 31.4234 24.8899 31.3649 25.0172C31.3064 25.1445 31.1425 25.3358 31.0007 25.4421C30.8432 25.56 30.5806 25.6352 30.3265 25.6352C30.0724 25.6352 29.8098 25.56 29.6523 25.4421C29.5105 25.3358 29.3466 25.1445 29.2881 25.0172C29.2296 24.8899 29.1818 24.6494 29.1818 24.4829C29.1818 24.3164 29.2495 24.0474 29.3324 23.8853C29.4151 23.7231 29.6055 23.523 29.7554 23.4406C29.9052 23.3582 30.1533 23.2891 30.3066 23.2868C30.4598 23.2846 30.7166 23.3517 30.8773 23.4357Z" fill="#0086FF"/>
</svg>

<svg width="50" height="50" fill="none" xmlns="http://www.w3.org/2000/svg"><path fill-rule="evenodd" clip-rule="evenodd" d="M45.407 37.196h-30.46V9.672h30.46v27.524Zm-15.81-23.624a1.26 1.26 0 0 1 .273-.343c.087-.067.3-.124.473-.126.231-.002.382.08.572.307.251.303.258.347.258 1.765 0 .8.023 1.454.052 1.454.028 0 .558-.386 1.178-.857.926-.705 1.19-.857 1.484-.857.267 0 .409.067.563.265.114.146.207.349.207.45 0 .1-.05.287-.109.414-.06.128-.843.794-1.742 1.482l-1.633 1.25v2.944l.45.243c.25.133.579.388.733.567l.281.324 2.766-.932.471-1.412c.26-.776.586-1.71.725-2.077.18-.473.326-.7.504-.781.138-.064.332-.116.432-.116.1 0 .299.094.443.21a.617.617 0 0 1 .262.533c0 .178-.2.927-.444 1.665-.257.776-.393 1.323-.323 1.3.066-.024.74-.242 1.497-.485 1.286-.413 1.395-.432 1.643-.291.146.083.325.277.398.431.108.227.11.34.011.581a.954.954 0 0 1-.382.43c-.143.072-.808.304-1.479.517-.67.213-1.22.413-1.219.445 0 .032.52.42 1.154.864.634.444 1.194.883 1.244.977.05.093.09.282.09.42s-.028.324-.062.414c-.034.09-.193.232-.353.316-.172.09-.381.124-.51.083-.121-.038-.959-.592-1.862-1.232-.903-.64-1.712-1.158-1.797-1.153-.086.005-.718.194-1.405.42l-1.25.412-.112.566c-.062.31-.204.715-.316.898l-.202.332 1.747 2.437h2.102c1.946 0 2.12.015 2.353.2.138.11.279.311.312.447a.995.995 0 0 1-.034.5.825.825 0 0 1-.323.377c-.158.085-.685.116-1.697.1-.808-.013-1.468.003-1.468.034 0 .032.38.588.846 1.236.656.914.846 1.253.846 1.512a.81.81 0 0 1-.197.532 1.13 1.13 0 0 1-.438.26.733.733 0 0 1-.458-.055c-.118-.064-.612-.662-1.097-1.328l-.882-1.212-.298.992c-.164.546-.355 1.188-.423 1.428-.069.24-.235.523-.37.63a1.006 1.006 0 0 1-.534.195c-.175 0-.386-.098-.534-.248-.134-.136-.244-.343-.244-.46 0-.118.27-1.114.601-2.214l.602-2-1.65-2.294-1.99.022-.475.648c-.26.356-.63.875-.82 1.152l-.344.504.594 1.916c.326 1.053.594 2.048.594 2.211a.888.888 0 0 1-.215.53.725.725 0 0 1-.552.233.77.77 0 0 1-.557-.227c-.14-.144-.366-.717-.614-1.563-.215-.734-.422-1.336-.46-1.336-.037 0-.453.54-.923 1.199-.47.659-.927 1.226-1.015 1.26-.087.034-.269.062-.404.062s-.355-.111-.49-.248a.827.827 0 0 1-.244-.545c0-.212.234-.629.809-1.442.445-.628.827-1.19.849-1.249.028-.072-.43-.092-1.448-.063l-1.489.043-.256-.26a.815.815 0 0 1-.257-.6c0-.235.08-.415.257-.584.252-.24.302-.245 2.386-.295l2.128-.05 1.699-2.366-.198-.33c-.11-.18-.25-.59-.311-.908l-.113-.58-.66-.198c-.362-.11-.974-.308-1.36-.442l-.701-.241-1.737 1.246c-1.152.827-1.826 1.247-1.998 1.247-.143 0-.379-.093-.523-.208-.202-.161-.262-.298-.262-.598 0-.337.057-.436.423-.733.233-.189.793-.608 1.246-.933.452-.324.788-.622.746-.662-.042-.04-.67-.264-1.396-.497-.992-.318-1.37-.486-1.518-.678-.109-.14-.198-.351-.198-.47a.95.95 0 0 1 .16-.447 1.03 1.03 0 0 1 .4-.323c.187-.072.56.01 1.646.363.772.25 1.426.433 1.454.405.027-.028-.168-.69-.433-1.473-.454-1.337-.474-1.437-.333-1.692.082-.148.274-.33.427-.405.224-.109.335-.111.573-.011a.965.965 0 0 1 .427.387c.073.145.413 1.086.756 2.09l.625 1.829 2.78.916.292-.338c.161-.186.493-.436.737-.556l.443-.217v-2.985l-1.683-1.276c-.926-.701-1.71-1.345-1.742-1.43a1.327 1.327 0 0 1-.059-.386c0-.126.093-.35.207-.496.154-.198.296-.265.563-.265.294 0 .558.152 1.484.857.62.471 1.15.857 1.178.857.03 0 .052-.639.052-1.418 0-.885.044-1.501.116-1.639Z" fill="#0086FF"/><path fill-rule="evenodd" clip-rule="evenodd" d="M9.394.615c.298-.173.785-.38 1.082-.461.296-.081.856-.15 1.243-.154.387-.003.947.067 1.244.156.297.09.744.267.993.395.249.127.681.44.96.694.28.254.652.689.827.966.176.278.407.788.514 1.135.123.403.193.92.193 1.436 0 .525-.07 1.038-.202 1.468-.111.364-.38.92-.6 1.235l-.396.574h31.26l.488.495v29.834l-.612.522h-31.44v10.595l-.49.495H9.01l-.482-.52-.052-41.11-.486-.651c-.268-.358-.586-.916-.706-1.24-.12-.323-.243-.928-.272-1.344-.029-.422 0-1.01.066-1.332a6.03 6.03 0 0 1 .424-1.196c.168-.341.54-.858.828-1.149.287-.29.766-.67 1.065-.843Zm4.492 1.879a3.62 3.62 0 0 0-.878-.595c-.288-.129-.77-.238-1.145-.26-.459-.027-.8.016-1.165.148a3.903 3.903 0 0 0-.965.56c-.296.246-.561.603-.776 1.044-.276.568-.325.78-.325 1.391 0 .61.05.824.324 1.388.178.367.468.789.644.938.176.148.375.367.441.485.094.166.122 4.778.124 20.504l.004 20.29h3.185V7.632l.54-.59c.346-.378.616-.798.756-1.172.172-.461.208-.731.173-1.29-.03-.493-.12-.857-.3-1.21a4 4 0 0 0-.637-.876Zm31.521 34.702V9.672h-30.46v27.524h30.46Z" fill="#0086FF"/><path d="M30.877 23.436c.16.084.36.286.443.448.083.163.151.432.151.599 0 .166-.048.407-.106.534a1.368 1.368 0 0 1-.364.425c-.158.118-.42.193-.675.193-.254 0-.516-.075-.674-.193a1.368 1.368 0 0 1-.364-.425 1.531 1.531 0 0 1-.106-.534c0-.167.068-.436.15-.598a1.23 1.23 0 0 1 .423-.444c.15-.083.398-.152.552-.154.153-.002.41.065.57.149Z" fill="#0086FF"/></svg>
